X: 532
T: Li bu kai
L: 1/8
M: 2/4
K: G
d eA2 [I:setbarnb 1]| 
d eA2 | 
d B/ d/ e g | 
A GE2 | 
A A/ B/d2 | 
E DC2 | 
E C E/ D/ C/ E/ | 
D4 |]

@@@ Tune index: 9406
